src/4-icons/look-for.svg

<svg width="260" height="260" viewBox="0 0 260 260" fill="none" xmlns="http://www.w3.org/2000/svg">
<path fill-rule="evenodd" clip-rule="evenodd" d="M40 70C17.9086 70 0 87.9086 0 110C0 132.091 17.9086 150 40 150H80C89.9262 150 99.0079 146.384 106 140.398V190C106 204.912 118.088 217 133 217H134.5C148.583 217 160 205.583 160 191.5V190C160 186.134 156.866 183 153 183H152.667C148.985 183 146 185.985 146 189.667V190C146 197.18 140.18 203 133 203C125.82 203 120 197.18 120 190V109H119.988C119.457 87.3707 101.757 70 80 70H40ZM106 110C106 95.6406 94.3594 84 80 84H70.3818C73.307 88.6308 75 94.1177 75 100C75 116.569 61.5685 130 45 130C29.2692 130 16.3663 117.893 15.1017 102.488C14.3851 104.866 14 107.388 14 110C14 124.359 25.6406 136 40 136H80C94.3594 136 106 124.359 106 110ZM45 84C36.1634 84 29 91.1634 29 100C29 108.837 36.1634 116 45 116C53.8366 116 61 108.837 61 100C61 91.1634 53.8366 84 45 84Z" fill="black"/>
<path fill-rule="evenodd" clip-rule="evenodd" d="M180 70C157.909 70 140 87.9086 140 110C140 132.091 157.909 150 180 150H220C242.091 150 260 132.091 260 110C260 87.9086 242.091 70 220 70H180ZM185 130C169.269 130 156.366 117.893 155.102 102.488C154.385 104.866 154 107.388 154 110C154 124.359 165.641 136 180 136H220C234.359 136 246 124.359 246 110C246 95.6406 234.359 84 220 84H210.382C213.307 88.6308 215 94.1177 215 100C215 116.569 201.569 130 185 130ZM169 100C169 91.1634 176.163 84 185 84C193.837 84 201 91.1634 201 100C201 108.837 193.837 116 185 116C176.163 116 169 108.837 169 100Z" fill="black"/>
</svg>

<svg width="260" height="260" viewBox="0 0 260 260" fill="none" xmlns="http://www.w3.org/2000/svg"><path fill-rule="evenodd" clip-rule="evenodd" d="M40 70C17.909 70 0 87.909 0 110s17.909 40 40 40h40a39.843 39.843 0 0 0 26-9.602V190c0 14.912 12.088 27 27 27h1.5c14.083 0 25.5-11.417 25.5-25.5V190a7 7 0 0 0-7-7h-.333a6.667 6.667 0 0 0-6.667 6.667V190c0 7.18-5.82 13-13 13s-13-5.82-13-13v-81h-.012C119.457 87.37 101.757 70 80 70H40Zm66 40c0-14.36-11.64-26-26-26h-9.618A29.86 29.86 0 0 1 75 100c0 16.569-13.431 30-30 30-15.73 0-28.634-12.107-29.898-27.512A25.997 25.997 0 0 0 14 110c0 14.359 11.64 26 26 26h40c14.36 0 26-11.641 26-26ZM45 84c-8.837 0-16 7.163-16 16s7.163 16 16 16 16-7.163 16-16-7.163-16-16-16Zm135-14c-22.091 0-40 17.909-40 40s17.909 40 40 40h40c22.091 0 40-17.909 40-40s-17.909-40-40-40h-40Zm5 60c-15.731 0-28.634-12.107-29.898-27.512A25.984 25.984 0 0 0 154 110c0 14.359 11.641 26 26 26h40c14.359 0 26-11.641 26-26 0-14.36-11.641-26-26-26h-9.618A29.862 29.862 0 0 1 215 100c0 16.569-13.431 30-30 30Zm-16-30c0-8.837 7.163-16 16-16s16 7.163 16 16-7.163 16-16 16-16-7.163-16-16Z" fill="#000"/></svg>
